X: 70
T:Broad Hoop. JaW.070
M:C|
L:1/4
Q:1/4=120
S:James Winder Ms, Lancashire, 1835-41
R:misc.
O:England
A:Wyresdale,Lancashire
H:1/4
Z:vmp.Chris Partington, Aug 2004
K:G
"Unedited"BGGB|dBdf|AFFA/B/|cFAc|!
BGGB|dcdg|fdcA|G-G:|!
|:"sic"gd/d(e/f/)|g/ d/ d3/2f|c<c (e/f/)g|!
c<cfd|d(e/f/)gd|dgec|AFGG:||!
zzzz|zzzz|zzzz||!
